assets/azurecubes/original.svg

<svg height="18" viewBox="0 0 18 18" width="18" xmlns="http://www.w3.org/2000/svg"><path d="m13.067 2.794v4.791l-4.141 2.408v-4.799z" fill="#76bc2d"/><path d="m13.067 2.794-4.141 2.407-4.141-2.408 4.141-2.407z" fill="#b4ec36"/><path d="m8.926 5.201v4.792l-4.141-2.408v-4.792z" fill="#86d633"/><path d="m8.782 10.416v4.791l-4.141 2.407v-4.798z" fill="#76bc2d"/><path d="m8.782 10.416-4.141 2.406-4.141-2.407 4.141-2.408z" fill="#b4ec36"/><path d="m4.641 12.822v4.792l-4.141-2.407v-4.792z" fill="#86d633"/><path d="m17.5 10.416v4.791l-4.141 2.407v-4.798z" fill="#76bc2d"/><path d="m17.5 10.416-4.14 2.406-4.142-2.407 4.142-2.408z" fill="#b4ec36"/><path d="m13.359 12.822v4.792l-4.141-2.407v-4.792z" fill="#86d633"/></svg>

<svg xmlns="http://www.w3.org/2000/svg" width="18" height="18" viewBox="0 0 18 18"><path fill="#76bc2d" d="M13.067 2.794v4.791L8.926 9.993V5.194z"/><path fill="#b4ec36" d="M13.067 2.794 8.926 5.201 4.785 2.793 8.926.386z"/><path fill="#86d633" d="M8.926 5.201v4.792L4.785 7.585V2.793z"/><path fill="#76bc2d" d="M8.782 10.416v4.791l-4.141 2.407v-4.798z"/><path fill="#b4ec36" d="m8.782 10.416-4.141 2.406L.5 10.415l4.141-2.408z"/><path fill="#86d633" d="M4.641 12.822v4.792L.5 15.207v-4.792z"/><path fill="#76bc2d" d="M17.5 10.416v4.791l-4.141 2.407v-4.798z"/><path fill="#b4ec36" d="m17.5 10.416-4.14 2.406-4.142-2.407 4.142-2.408z"/><path fill="#86d633" d="M13.359 12.822v4.792l-4.141-2.407v-4.792z"/></svg>
